!!!COM: Josephine Lang
!!!CNT: Deutsch
!!!TXO: Deutsch
!!!OTL: "Na2he des Geliebten"
!!!LYR: Goethe
!!!OPS: Op. 5
!!!ONM: No. 1
!!!ENC: Alyona Dzerbina
!!!YOR: Josephine Lang: Selected Songs
!!!YOR: Da Capo Press, 1982
!!!ODT: 1830/
!!NB: Vocal melody only encoded.
**kern
*staff1
*clefG2
*k[b-e-]
*M2/4
*MM[Andante]
2r
=2!|:
2r
=3
2r
=4
2r
=5
4r
8r
{(8B-
=6
4.d
8B-
=7
[4e-
16e-])}
{16b-
16a
16g
=8
4.f
8f
=9
(4g
8.f)}
{16e-
=10
4..d
16c
=11
2c}
=12
8r
{8g
8.g
16f#
=13
4a}
8r
{8d
=14
8b-
8b-
8.b-
16a-
=15
4a-
8g}
{8g
=16
4a
4b-
=17
4.cc}
{8f
=18
8dd
8cc
8b-
8a-
=19
8a-
8g
8f}
{8e-
=20
4.d
8c
=21
2B-}
=22:|!
2r
=23
2r
=24
2r
=25
2r
=26
2r
==
*-
